!!!ONR: No. 9
!! From Harold Courlander, "Haiti Singing"
!! Chapel Hill: University of North Carolina Press, 1939
!! Copyright University of North Carolina Press
!!!ENC: D. Huron
**kern
*clefG2
*k[b-e-a-]
*M2/4
=1-
4r
8B-
8d
=2
8f
8f
8d
8B-
=3
8g
8g
8f
8en
=4
[2f
=5
4f]
8B-
8d
=6
8f
8f
8d
8B-
=7
8g
8g
8f
8f
=8
8e-
[4.d
=9
8d]
16f
16f
16b-
16b-
16b-
16b-
=10
8f
8a-
8g
8g
=11
8f
8f
4B-
=12
8d
8g
8f
16f
16f
=13
[12d
12d]
12d
4B-
==
*-
